X: 51
T: Stomp Dance Song (g)
C: Anon.
%%abc-version 2.0
%%abcx-abcm2ps-target-version 5.9.1 (29 Sep 2008)
%%abc-creator hum2abc beta
%%abcx-conversion-date 2020/08/10 20:56:09
%%abc-copyright Electronic Copyright 2000 David Huron
%%abc-edited-by David Huron
%%abcx-initial-encoding-date August 29, 2000
%%humdrum-veritas 838547541
%%humdrum-veritas-data 4191482478
%%linebreak <none>
%%barnumbers 0
L: 1/8
M: 2/4
Q: 1/4=116
K: Bb clef=bass
C CC2 | 
B,2G, z | 
C CC2 | 
B,2G, z/ G,/ | 
D4 | 
C2C z/ D/ | 
C4 | 
B,2G, z | 
C C C z | 
B,2G, z | 
D2C B, | 
B,2F, z | 
D2C B, | 
B,2G, z | 
C CC2 | 
B,2G, z | 
C CC2 | 
B,2G, z | 
D C D C | 
B,2F, z | 
D C D C | 
B,2G, z | 
B, B,C2 | 
B,2G, z | 
C CC2 | 
B,2G, z | 
C C C B, | 
B,2G, z | 
D2C B, | 
B,2F, z | 
D2C B, | 
B,2G, z | 
C CB,2 | 
B,2G, z | 
C C C B, | 
B,2G, z | 
C C C B, | 
B,2G, z/ B,/ | 
B,2z2 | 
B,2z2 |]  


